svg/color/dod.svg

<?xml version="1.0" encoding="UTF-8" ?>
<!DOCTYPE svg PUBLIC "-//W3C//DTD SVG 1.1//EN" "http://www.w3.org/Graphics/SVG/1.1/DTD/svg11.dtd">
<svg width="250pt" height="250pt" viewBox="0 0 250 250" version="1.1" xmlns="http://www.w3.org/2000/svg">
<g id="#ffffffff">
<path fill="#ffffff" opacity="1.00" d=" M 0.00 0.00 L 250.00 0.00 L 250.00 250.00 L 0.00 250.00 L 0.00 0.00 M 85.55 37.78 C 78.77 41.47 71.85 45.07 65.74 49.82 C 57.11 57.20 48.83 65.37 43.41 75.47 C 33.66 91.43 28.78 110.33 29.58 129.01 C 30.57 147.40 36.57 165.59 47.43 180.53 C 58.82 196.88 75.73 209.10 94.63 215.32 C 101.80 217.32 109.02 219.73 116.55 219.74 C 116.32 212.67 116.38 205.61 116.52 198.54 C 122.43 198.65 128.35 198.55 134.27 198.61 C 134.40 205.66 134.35 212.71 134.29 219.77 C 145.51 219.73 156.10 215.58 166.25 211.21 C 171.36 208.85 176.10 205.77 180.83 202.74 C 186.44 199.19 190.85 194.18 195.53 189.56 C 205.02 180.32 211.12 168.26 215.82 156.03 C 221.09 142.46 221.35 127.61 220.31 113.28 C 218.83 103.66 216.42 94.11 212.54 85.17 C 206.70 73.47 199.24 62.37 189.39 53.67 C 182.33 48.21 175.28 42.55 167.03 38.95 C 156.84 33.89 145.74 30.23 134.27 30.13 C 134.41 37.20 134.37 44.27 134.27 51.34 C 128.53 51.17 122.79 51.39 117.05 51.32 L 116.48 50.70 C 116.02 43.84 116.75 36.95 116.11 30.09 C 105.57 30.73 95.28 33.82 85.55 37.78 Z" />
<path fill="#ffffff" opacity="1.00" d=" M 88.62 53.50 C 94.18 49.75 100.22 46.55 106.78 45.00 C 107.14 48.05 107.82 51.38 106.28 54.24 C 100.40 56.67 94.63 59.52 89.88 63.85 C 74.03 76.11 64.95 95.51 62.59 115.12 C 62.28 125.01 61.70 135.13 64.44 144.76 C 67.02 156.56 72.99 167.31 80.29 176.82 C 86.60 184.72 95.11 190.64 104.36 194.60 C 108.68 196.05 107.30 201.65 106.28 204.94 C 96.03 201.41 86.52 195.82 78.65 188.35 C 70.65 181.68 65.11 172.65 60.63 163.36 C 56.43 154.08 53.40 144.17 52.53 133.98 C 52.30 127.37 52.26 120.74 52.62 114.13 C 55.72 90.27 68.02 66.71 88.62 53.50 Z" />
<path fill="#ffffff" opacity="1.00" d=" M 143.43 45.02 C 148.43 45.85 152.94 48.28 157.32 50.70 C 163.08 54.08 168.86 57.64 173.47 62.53 C 182.32 71.64 188.87 82.83 193.28 94.71 C 196.37 103.81 197.66 113.41 198.34 122.97 C 198.30 140.34 194.17 157.96 184.75 172.71 C 180.30 180.34 173.90 186.53 167.44 192.43 C 160.25 197.92 152.11 202.25 143.47 204.97 C 143.45 201.82 143.46 198.66 143.45 195.51 C 156.91 191.23 167.80 181.06 175.46 169.44 C 181.06 160.66 185.07 150.80 186.74 140.49 C 187.95 132.64 189.09 124.63 187.71 116.72 C 186.30 97.71 177.75 79.24 163.68 66.31 C 157.73 60.92 150.68 56.99 143.38 53.76 C 143.47 50.85 143.49 47.94 143.43 45.02 Z" />
<path fill="#ffffff" opacity="1.00" d=" M 116.38 62.36 C 122.30 61.14 128.54 60.91 134.39 62.62 C 134.55 104.02 134.21 145.43 134.56 186.82 C 128.70 188.89 122.49 188.45 116.48 187.38 C 116.21 145.71 116.41 104.03 116.38 62.36 Z" />
<path fill="#ffffff" opacity="1.00" d=" M 96.57 75.56 C 99.76 72.28 102.70 68.13 107.41 67.03 C 107.34 105.68 107.31 144.32 107.43 182.96 C 102.11 181.34 98.87 176.55 95.40 172.57 C 83.20 158.54 79.02 139.18 79.55 121.00 C 80.51 104.68 85.33 87.85 96.57 75.56 Z" />
<path fill="#ffffff" opacity="1.00" d=" M 143.51 66.89 C 147.60 68.74 150.41 72.36 153.56 75.41 C 160.41 82.19 164.52 91.18 167.55 100.20 C 171.21 111.38 171.15 123.30 170.47 134.92 C 168.07 153.47 159.97 172.82 143.48 183.00 C 143.46 144.30 143.40 105.59 143.51 66.89 Z" />
</g>
<g id="#fbb82cff">
<path fill="#fbb82c" opacity="1.00" d=" M 85.55 37.78 C 95.28 33.82 105.57 30.73 116.11 30.09 C 116.75 36.95 116.02 43.84 116.48 50.70 L 117.05 51.32 C 122.79 51.39 128.53 51.17 134.27 51.34 C 134.37 44.27 134.41 37.20 134.27 30.13 C 145.74 30.23 156.84 33.89 167.03 38.95 C 175.28 42.55 182.33 48.21 189.39 53.67 C 199.24 62.37 206.70 73.47 212.54 85.17 C 216.42 94.11 218.83 103.66 220.31 113.28 C 221.35 127.61 221.09 142.46 215.82 156.03 C 211.12 168.26 205.02 180.32 195.53 189.56 C 190.85 194.18 186.44 199.19 180.83 202.74 C 176.10 205.77 171.36 208.85 166.25 211.21 C 156.10 215.58 145.51 219.73 134.29 219.77 C 134.35 212.71 134.40 205.66 134.27 198.61 C 128.35 198.55 122.43 198.65 116.52 198.54 C 116.38 205.61 116.32 212.67 116.55 219.74 C 109.02 219.73 101.80 217.32 94.63 215.32 C 75.73 209.10 58.82 196.88 47.43 180.53 C 36.57 165.59 30.57 147.40 29.58 129.01 C 28.78 110.33 33.66 91.43 43.41 75.47 C 48.83 65.37 57.11 57.20 65.74 49.82 C 71.85 45.07 78.77 41.47 85.55 37.78 M 88.62 53.50 C 68.02 66.71 55.72 90.27 52.62 114.13 C 52.26 120.74 52.30 127.37 52.53 133.98 C 53.40 144.17 56.43 154.08 60.63 163.36 C 65.11 172.65 70.65 181.68 78.65 188.35 C 86.52 195.82 96.03 201.41 106.28 204.94 C 107.30 201.65 108.68 196.05 104.36 194.60 C 95.11 190.64 86.60 184.72 80.29 176.82 C 72.99 167.31 67.02 156.56 64.44 144.76 C 61.70 135.13 62.28 125.01 62.59 115.12 C 64.95 95.51 74.03 76.11 89.88 63.85 C 94.63 59.52 100.40 56.67 106.28 54.24 C 107.82 51.38 107.14 48.05 106.78 45.00 C 100.22 46.55 94.18 49.75 88.62 53.50 M 143.43 45.02 C 143.49 47.94 143.47 50.85 143.38 53.76 C 150.68 56.99 157.73 60.92 163.68 66.31 C 177.75 79.24 186.30 97.71 187.71 116.72 C 189.09 124.63 187.95 132.64 186.74 140.49 C 185.07 150.80 181.06 160.66 175.46 169.44 C 167.80 181.06 156.91 191.23 143.45 195.51 C 143.46 198.66 143.45 201.82 143.47 204.97 C 152.11 202.25 160.25 197.92 167.44 192.43 C 173.90 186.53 180.30 180.34 184.75 172.71 C 194.17 157.96 198.30 140.34 198.34 122.97 C 197.66 113.41 196.37 103.81 193.28 94.71 C 188.87 82.83 182.32 71.64 173.47 62.53 C 168.86 57.64 163.08 54.08 157.32 50.70 C 152.94 48.28 148.43 45.85 143.43 45.02 M 116.38 62.36 C 116.41 104.03 116.21 145.71 116.48 187.38 C 122.49 188.45 128.70 188.89 134.56 186.82 C 134.21 145.43 134.55 104.02 134.39 62.62 C 128.54 60.91 122.30 61.14 116.38 62.36 M 96.57 75.56 C 85.33 87.85 80.51 104.68 79.55 121.00 C 79.02 139.18 83.20 158.54 95.40 172.57 C 98.87 176.55 102.11 181.34 107.43 182.96 C 107.31 144.32 107.34 105.68 107.41 67.03 C 102.70 68.13 99.76 72.28 96.57 75.56 M 143.51 66.89 C 143.40 105.59 143.46 144.30 143.48 183.00 C 159.97 172.82 168.07 153.47 170.47 134.92 C 171.15 123.30 171.21 111.38 167.55 100.20 C 164.52 91.18 160.41 82.19 153.56 75.41 C 150.41 72.36 147.60 68.74 143.51 66.89 Z" />
</g>
</svg>

<?xml version="1.0" encoding="utf-8"?>
<!-- Generator: Adobe Illustrator 26.0.3, SVG Export Plug-In . SVG Version: 6.00 Build 0)  -->
<svg version="1.1" id="Layer_1" xmlns="http://www.w3.org/2000/svg" xmlns:xlink="http://www.w3.org/1999/xlink" x="0px" y="0px"
	 viewBox="0 0 250 250" style="enable-background:new 0 0 250 250;" xml:space="preserve">
<style type="text/css">
	.st0{fill:#FFFFFF;}
	.st1{fill:#FBB82C;}
</style>
<g id="_x23_ffffffff">
	<path class="st0" d="M88.6,53.5c5.6-3.8,11.6-7,18.2-8.5c0.4,3,1,6.4-0.5,9.2c-5.9,2.4-11.7,5.3-16.4,9.6
		C74,76.1,64.9,95.5,62.6,115.1c-0.3,9.9-0.9,20,1.9,29.6c2.6,11.8,8.5,22.6,15.8,32.1c6.3,7.9,14.8,13.8,24.1,17.8
		c4.3,1.4,2.9,7,1.9,10.3c-10.2-3.5-19.8-9.1-27.6-16.6c-8-6.7-13.5-15.7-18-25c-4.2-9.3-7.2-19.2-8.1-29.4
		c-0.2-6.6-0.3-13.2,0.1-19.8C55.7,90.3,68,66.7,88.6,53.5z"/>
	<path class="st0" d="M143.4,45c5,0.8,9.5,3.3,13.9,5.7c5.8,3.4,11.5,6.9,16.1,11.8c8.9,9.1,15.4,20.3,19.8,32.2
		c3.1,9.1,4.4,18.7,5.1,28.3c0,17.4-4.2,35-13.6,49.7c-4.4,7.6-10.9,13.8-17.3,19.7c-7.2,5.5-15.3,9.8-24,12.5c0-3.1,0-6.3,0-9.5
		c13.5-4.3,24.4-14.4,32-26.1c5.6-8.8,9.6-18.6,11.3-28.9c1.2-7.9,2.3-15.9,1-23.8c-1.4-19-10-37.5-24-50.4
		c-5.9-5.4-13-9.3-20.3-12.5C143.5,50.8,143.5,47.9,143.4,45z"/>
	<path class="st0" d="M116.4,62.4c5.9-1.2,12.2-1.5,18,0.3c0.2,41.4-0.2,82.8,0.2,124.2c-5.9,2.1-12.1,1.6-18.1,0.6
		C116.2,145.7,116.4,104,116.4,62.4z"/>
	<path class="st0" d="M96.6,75.6c3.2-3.3,6.1-7.4,10.8-8.5c-0.1,38.7-0.1,77.3,0,115.9c-5.3-1.6-8.6-6.4-12-10.4
		c-12.2-14-16.4-33.4-15.8-51.6C80.5,104.7,85.3,87.8,96.6,75.6z"/>
	<path class="st0" d="M143.5,66.9c4.1,1.8,6.9,5.5,10.1,8.5c6.9,6.8,11,15.8,14,24.8c3.7,11.2,3.6,23.1,2.9,34.7
		c-2.4,18.6-10.5,37.9-27,48.1C143.5,144.3,143.4,105.6,143.5,66.9z"/>
</g>
<g id="_x23_fbb82cff">
	<path class="st1" d="M85.6,37.8c9.7-4,20-7,30.6-7.7c0.6,6.9-0.1,13.8,0.4,20.6l0.6,0.6c5.7,0.1,11.5-0.2,17.2,0
		c0.1-7.1,0.1-14.1,0-21.2c11.5,0.1,22.6,3.8,32.8,8.8c8.2,3.6,15.3,9.3,22.4,14.7c9.9,8.7,17.3,19.8,23.1,31.5
		c3.9,8.9,6.3,18.5,7.8,28.1c1,14.3,0.8,29.2-4.5,42.8c-4.7,12.2-10.8,24.3-20.3,33.5c-4.7,4.6-9.1,9.6-14.7,13.2
		c-4.7,3-9.5,6.1-14.6,8.5c-10.1,4.4-20.7,8.5-32,8.6c0.1-7.1,0.1-14.1,0-21.2c-5.9-0.1-11.8,0-17.8-0.1c-0.1,7.1-0.2,14.1,0,21.2
		c-7.5,0-14.8-2.4-21.9-4.4c-18.9-6.2-35.8-18.4-47.2-34.8c-10.9-14.9-16.9-33.1-17.9-51.5c-0.8-18.7,4.1-37.6,13.8-53.5
		c5.4-10.1,13.7-18.3,22.3-25.7C71.8,45.1,78.8,41.5,85.6,37.8 M88.6,53.5c-20.6,13.2-32.9,36.8-36,60.6c-0.4,6.6-0.3,13.2-0.1,19.8
		c0.9,10.2,3.9,20.1,8.1,29.4c4.5,9.3,10,18.3,18,25c7.9,7.5,17.4,13.1,27.6,16.6c1-3.3,2.4-8.9-1.9-10.3c-9.2-4-17.8-9.9-24.1-17.8
		c-7.3-9.5-13.3-20.3-15.8-32.1c-2.7-9.6-2.2-19.7-1.9-29.6c2.4-19.6,11.4-39,27.3-51.3c4.8-4.3,10.5-7.2,16.4-9.6
		c1.5-2.9,0.9-6.2,0.5-9.2C100.2,46.5,94.2,49.8,88.6,53.5 M143.4,45c0.1,2.9,0,5.8,0,8.7c7.3,3.2,14.3,7.2,20.3,12.5
		c14.1,12.9,22.6,31.4,24,50.4c1.4,7.9,0.2,15.9-1,23.8c-1.7,10.3-5.7,20.2-11.3,28.9c-7.7,11.6-18.6,21.8-32,26.1
		c0,3.2,0,6.3,0,9.5c8.6-2.7,16.8-7.1,24-12.5c6.5-5.9,12.9-12.1,17.3-19.7c9.4-14.8,13.6-32.4,13.6-49.7c-0.7-9.6-2-19.2-5.1-28.3
		c-4.4-11.9-11-23.1-19.8-32.2c-4.6-4.9-10.4-8.4-16.1-11.8C152.9,48.3,148.4,45.8,143.4,45 M116.4,62.4c0,41.7-0.2,83.4,0.1,125
		c6,1.1,12.2,1.5,18.1-0.6c-0.3-41.4,0-82.8-0.2-124.2C128.5,60.9,122.3,61.1,116.4,62.4 M96.6,75.6c-11.2,12.3-16.1,29.1-17,45.4
		c-0.5,18.2,3.6,37.5,15.8,51.6c3.5,4,6.7,8.8,12,10.4c-0.1-38.6-0.1-77.3,0-115.9C102.7,68.1,99.8,72.3,96.6,75.6 M143.5,66.9
		c-0.1,38.7,0,77.4,0,116.1c16.5-10.2,24.6-29.5,27-48.1c0.7-11.6,0.7-23.5-2.9-34.7c-3-9-7.1-18-14-24.8
		C150.4,72.4,147.6,68.7,143.5,66.9z"/>
</g>
</svg>
